branches/nugui/src/gui/icons/stack_select.svg

<?xml version="1.0" encoding="UTF-8" standalone="no"?>
<!-- Created with Inkscape (http://www.inkscape.org/) -->

<svg
   xmlns:dc="http://purl.org/dc/elements/1.1/"
   xmlns:cc="http://creativecommons.org/ns#"
   xmlns:rdf="http://www.w3.org/1999/02/22-rdf-syntax-ns#"
   xmlns:svg="http://www.w3.org/2000/svg"
   xmlns="http://www.w3.org/2000/svg"
   xmlns:xlink="http://www.w3.org/1999/xlink"
   xmlns:inkscape="http://www.inkscape.org/namespaces/inkscape"
   version="1.0"
   width="100"
   height="100"
   id="svg2">
  <metadata
     id="metadata2566">
    <rdf:RDF>
      <cc:Work
         rdf:about="">
        <dc:format>image/svg+xml</dc:format>
        <dc:type
           rdf:resource="http://purl.org/dc/dcmitype/StillImage" />
      </cc:Work>
    </rdf:RDF>
  </metadata>
  <defs
     id="defs4">
    <linearGradient
       id="linearGradient3384">
      <stop
         id="stop3386"
         style="stop-color:#0000ff;stop-opacity:1"
         offset="0" />
      <stop
         id="stop3388"
         style="stop-color:#000000;stop-opacity:1"
         offset="1" />
    </linearGradient>
    <linearGradient
       id="linearGradient3252">
      <stop
         id="stop3254"
         style="stop-color:#ffffff;stop-opacity:1"
         offset="0" />
      <stop
         id="stop3256"
         style="stop-color:#7f7fff;stop-opacity:0"
         offset="1" />
    </linearGradient>
    <linearGradient
       x1="25.398125"
       y1="63.345894"
       x2="90.625114"
       y2="63.345894"
       id="linearGradient2448"
       xlink:href="#linearGradient3384"
       gradientUnits="userSpaceOnUse"
       gradientTransform="matrix(0.2377304,0.2377304,-0.2377304,0.2377304,130.10411,3.861581)" />
    <radialGradient
       cx="58.01162"
       cy="63.345894"
       r="33.113495"
       fx="58.01162"
       fy="63.345894"
       id="radialGradient2450"
       xlink:href="#linearGradient3252"
       gradientUnits="userSpaceOnUse"
       gradientTransform="matrix(0.1887019,0,0,0.1887019,113.81659,16.602022)" />
    <linearGradient
       x1="25.398125"
       y1="63.345894"
       x2="90.625114"
       y2="63.345894"
       id="linearGradient2464"
       xlink:href="#linearGradient3384"
       gradientUnits="userSpaceOnUse"
       gradientTransform="matrix(0.2377304,0.2377304,-0.2377304,0.2377304,130.10411,3.861581)" />
    <radialGradient
       cx="58.01162"
       cy="63.345894"
       r="33.113495"
       fx="58.01162"
       fy="63.345894"
       id="radialGradient2466"
       xlink:href="#linearGradient3252"
       gradientUnits="userSpaceOnUse"
       gradientTransform="matrix(0.1887019,0,0,0.1887019,113.81659,16.602022)" />
  </defs>
  <g
     transform="matrix(1.1714659,0,0,1.1714659,49.589393,-26.311034)"
     id="use3458">
    <path
       d="m 42.504527,49.373914 c 0.0015,8.26111 -6.69509,14.958833 -14.9562,14.958833 -8.261119,0 -14.957669,-6.697723 -14.95621,-14.958833 -0.0015,-8.261108 6.695091,-14.958829 14.95621,-14.958829 8.26111,0 14.957651,6.697721 14.9562,14.958829 l 0,0 z"
       inkscape:connector-curvature="0"
       id="path2454"
       style="fill:#a6a3a5;fill-opacity:1;fill-rule:evenodd;stroke:none" />
    <g
       transform="matrix(1.3640315,0,0,1.3640315,-151.23644,1.217585)"
       id="g2456">
      <path
         d="m 139.687,32.752702 c 10e-4,6.056392 -4.90831,10.96663 -10.9647,10.96663 -6.0564,0 -10.96578,-4.910238 -10.96471,-10.96663 -10e-4,-6.056391 4.90831,-10.96663 10.96471,-10.96663 6.05639,0 10.96577,4.910239 10.9647,10.96663 l 0,0 z"
         inkscape:connector-curvature="0"
         id="path2458"
         style="fill:#0000ff;fill-opacity:1;fill-rule:evenodd;stroke:#000000;stroke-width:0.33620161px;stroke-linecap:butt;stroke-linejoin:miter;stroke-opacity:1" />
      <path
         d="m 136.58921,40.465176 c -4.28176,4.283266 -11.22528,4.283874 -15.5078,0.0014 -4.28251,-4.282515 -4.28191,-11.226032 10e-4,-15.507798 4.28177,-4.283266 11.22528,-4.283874 15.5078,-0.0014 4.28251,4.282517 4.28191,11.226034 -0.001,15.507799 l 0,0 z"
         inkscape:connector-curvature="0"
         id="path2460"
         style="opacity:0.71739131;fill:url(#linearGradient2464);fill-opacity:1;fill-rule:evenodd;stroke:none" />
      <path
         d="m 130.91772,28.55551 c 5.9e-4,3.399307 -2.75493,6.155305 -6.15423,6.155305 -3.39931,0 -6.15482,-2.755998 -6.15423,-6.155305 -5.9e-4,-3.399307 2.75492,-6.155305 6.15423,-6.155305 3.3993,0 6.15482,2.755998 6.15423,6.155305 l 0,0 z"
         inkscape:connector-curvature="0"
         id="path2462"
         style="fill:url(#radialGradient2466);fill-opacity:1;fill-rule:evenodd;stroke:none" />
    </g>
  </g>
  <g
     transform="matrix(1.1714659,0,0,1.1714659,2.9424626,-3.7694674)"
     id="g2438">
    <rect
       width="44.205811"
       height="45.844524"
       x="1.5955156"
       y="5.5493083"
       id="rect3229"
       style="fill:none;stroke:#9fa49d;stroke-width:1.88381231;stroke-linecap:round;stroke-linejoin:round;stroke-miterlimit:4;stroke-opacity:1;stroke-dasharray:3.76762435, 1.88381218;stroke-dashoffset:0" />
    <g
       transform="translate(-3.0675952,-18.684443)"
       id="g3449">
      <path
         d="m 42.504527,49.373914 c 0.0015,8.26111 -6.69509,14.958833 -14.9562,14.958833 -8.261119,0 -14.957669,-6.697723 -14.95621,-14.958833 -0.0015,-8.261108 6.695091,-14.958829 14.95621,-14.958829 8.26111,0 14.957651,6.697721 14.9562,14.958829 l 0,0 z"
         inkscape:connector-curvature="0"
         id="use2673"
         style="fill:#9d9fa1;fill-opacity:1;fill-rule:evenodd;stroke:none" />
      <g
         transform="matrix(1.3640315,0,0,1.3640315,-151.23644,1.217585)"
         id="use2652">
        <path
           d="m 139.687,32.752702 c 10e-4,6.056392 -4.90831,10.96663 -10.9647,10.96663 -6.0564,0 -10.96578,-4.910238 -10.96471,-10.96663 -10e-4,-6.056391 4.90831,-10.96663 10.96471,-10.96663 6.05639,0 10.96577,4.910239 10.9647,10.96663 l 0,0 z"
           inkscape:connector-curvature="0"
           id="path3427"
           style="fill:#0000ff;fill-opacity:1;fill-rule:evenodd;stroke:#000000;stroke-width:0.33620161px;stroke-linecap:butt;stroke-linejoin:miter;stroke-opacity:1" />
        <path
           d="m 136.58921,40.465176 c -4.28176,4.283266 -11.22528,4.283874 -15.5078,0.0014 -4.28251,-4.282515 -4.28191,-11.226032 10e-4,-15.507798 4.28177,-4.283266 11.22528,-4.283874 15.5078,-0.0014 4.28251,4.282517 4.28191,11.226034 -0.001,15.507799 l 0,0 z"
           inkscape:connector-curvature="0"
           id="path3429"
           style="opacity:0.71739131;fill:url(#linearGradient2448);fill-opacity:1;fill-rule:evenodd;stroke:none" />
        <path
           d="m 130.91772,28.55551 c 5.9e-4,3.399307 -2.75493,6.155305 -6.15423,6.155305 -3.39931,0 -6.15482,-2.755998 -6.15423,-6.155305 -5.9e-4,-3.399307 2.75492,-6.155305 6.15423,-6.155305 3.3993,0 6.15482,2.755998 6.15423,6.155305 l 0,0 z"
           inkscape:connector-curvature="0"
           id="path3431"
           style="fill:url(#radialGradient2450);fill-opacity:1;fill-rule:evenodd;stroke:none" />
      </g>
    </g>
    <rect
       width="44.205811"
       height="45.844524"
       x="-1.0423255"
       y="4.2897615"
       id="rect4688"
       style="fill:none;stroke:#000000;stroke-width:1.88381231;stroke-linecap:round;stroke-linejoin:round;stroke-miterlimit:4;stroke-opacity:1;stroke-dasharray:3.76762435, 1.88381218;stroke-dashoffset:0" />
  </g>
  <rect
     width="86.899376"
     height="25.481771"
     x="4.8329468"
     y="73.194328"
     id="rect2468"
     style="fill:#ffffff;fill-opacity:1;stroke:#000000;stroke-width:2.34293175;stroke-miterlimit:4;stroke-opacity:1;stroke-dasharray:none" />
  <path
     d="m 22.44068,92.281147 -1.85941,0 0,-6.713982 -7.859783,0 0,6.713982 -1.849361,0 0,-14.18178 1.849361,0 0,5.909913 7.859783,0 0,-5.909913 1.85941,0 0,14.18178 m 4.482689,0.271374 c -0.355133,-0.04021 -0.646608,-0.184266 -0.874425,-0.432188 -0.227822,-0.247921 -0.341732,-0.529344 -0.34173,-0.844273 -2e-6,-0.341728 0.110552,-0.629853 0.331679,-0.864374 0.227817,-0.23452 0.505891,-0.351779 0.834222,-0.351781 0.37523,2e-6 0.700207,0.154115 0.974935,0.46234 0.27472,0.301527 0.412081,0.666708 0.412085,1.095544 -4e-6,1.313315 -0.727016,2.338502 -2.181039,3.075568 l -0.391984,-0.723663 c 0.82417,-0.402036 1.236255,-0.874427 1.236257,-1.417173 m 16.021092,-0.271374 -1.809157,0 0,-11.799724 c -0.844279,0.837585 -2.050381,1.256371 -3.618315,1.25636 l 0,-1.688547 c 1.909663,1.3e-5 3.27993,-0.690147 4.110808,-2.07048 l 1.316664,0 0,14.302391 m 10.221737,-4.422383 -5.52798,0 0,-1.708649 5.52798,0 0,1.708649 m 9.327209,-1.919716 c -0.328337,0.51595 -0.800727,0.928035 -1.417173,1.236257 -0.61646,0.301531 -1.263066,0.452294 -1.939818,0.452289 -1.239612,5e-6 -2.284902,-0.442233 -3.135872,-1.326716 -0.844275,-0.89117 -1.266411,-2.033618 -1.26641,-3.427347 -10e-7,-1.474116 0.405383,-2.683571 1.216155,-3.628365 0.817469,-0.944767 1.949865,-1.417159 3.397195,-1.417173 1.608133,1.4e-5 2.841038,0.616468 3.698721,1.849361 0.864365,1.226218 1.296552,2.99182 1.296563,5.29681 -1.1e-5,2.459118 -0.485802,4.338629 -1.457376,5.638538 -0.971593,1.293213 -2.301658,1.939819 -3.990197,1.939819 -0.569554,0 -1.192707,-0.09381 -1.869463,-0.281425 -0.676761,-0.187616 -1.283163,-0.445588 -1.819207,-0.773917 l 0.582951,-1.437274 c 1.058689,0.629856 2.093927,0.944783 3.105719,0.944781 1.139092,2e-6 2.016868,-0.425484 2.633329,-1.27646 0.623145,-0.850971 0.944773,-2.114029 0.964883,-3.789178 m -3.045414,0.150763 c 0.241214,5e-6 0.485786,-0.03684 0.733714,-0.110563 0.247915,-0.0804 0.485785,-0.187611 0.713611,-0.321629 0.227813,-0.140706 0.438881,-0.301519 0.633206,-0.482442 0.201009,-0.187609 0.402026,-0.422128 0.603052,-0.70356 0.201009,-0.288118 0.301517,-0.485785 0.301525,-0.593002 -8e-6,-1.092186 -0.271381,-2.114023 -0.81412,-3.065516 -0.536054,-0.958171 -1.279817,-1.437262 -2.231294,-1.437275 -0.87108,1.3e-5 -1.557889,0.30824 -2.060428,0.924681 -0.495846,0.616465 -0.743767,1.433935 -0.743765,2.452412 -2e-6,1.005095 0.25797,1.812515 0.773918,2.42226 0.522641,0.60976 1.2195,0.914636 2.090581,0.91463"
     inkscape:connector-curvature="0"
     id="text3240"
     style="font-size:17.57130623px;font-style:normal;font-variant:normal;font-weight:normal;font-stretch:normal;fill:#000000;fill-opacity:1;stroke:none;font-family:Sans;-inkscape-font-specification:Sans" />
</svg>

<?xml version="1.0" encoding="UTF-8" standalone="no"?>
<!-- Created with Inkscape (http://www.inkscape.org/) -->
<svg
   xmlns:svg="http://www.w3.org/2000/svg"
   xmlns="http://www.w3.org/2000/svg"
   xmlns:xlink="http://www.w3.org/1999/xlink"
   version="1.0"
   width="100"
   height="100"
   id="svg2">
  <defs
     id="defs4">
    <linearGradient
       id="linearGradient3384">
      <stop
         id="stop3386"
         style="stop-color:#0000ff;stop-opacity:1"
         offset="0" />
      <stop
         id="stop3388"
         style="stop-color:#000000;stop-opacity:1"
         offset="1" />
    </linearGradient>
    <linearGradient
       id="linearGradient3252">
      <stop
         id="stop3254"
         style="stop-color:#ffffff;stop-opacity:1"
         offset="0" />
      <stop
         id="stop3256"
         style="stop-color:#7f7fff;stop-opacity:0"
         offset="1" />
    </linearGradient>
    <linearGradient
       x1="25.398125"
       y1="63.345894"
       x2="90.625114"
       y2="63.345894"
       id="linearGradient2448"
       xlink:href="#linearGradient3384"
       gradientUnits="userSpaceOnUse"
       gradientTransform="matrix(0.2377304,0.2377304,-0.2377304,0.2377304,130.10411,3.861581)" />
    <radialGradient
       cx="58.01162"
       cy="63.345894"
       r="33.113495"
       fx="58.01162"
       fy="63.345894"
       id="radialGradient2450"
       xlink:href="#linearGradient3252"
       gradientUnits="userSpaceOnUse"
       gradientTransform="matrix(0.1887019,0,0,0.1887019,113.81659,16.602022)" />
    <linearGradient
       x1="25.398125"
       y1="63.345894"
       x2="90.625114"
       y2="63.345894"
       id="linearGradient2464"
       xlink:href="#linearGradient3384"
       gradientUnits="userSpaceOnUse"
       gradientTransform="matrix(0.2377304,0.2377304,-0.2377304,0.2377304,130.10411,3.861581)" />
    <radialGradient
       cx="58.01162"
       cy="63.345894"
       r="33.113495"
       fx="58.01162"
       fy="63.345894"
       id="radialGradient2466"
       xlink:href="#linearGradient3252"
       gradientUnits="userSpaceOnUse"
       gradientTransform="matrix(0.1887019,0,0,0.1887019,113.81659,16.602022)" />
  </defs>
  <g
     transform="matrix(1.1714659,0,0,1.1714659,49.589393,-26.311034)"
     id="use3458">
    <path
       d="M 42.504527,49.373914 C 42.506027,57.635024 35.809437,64.332747 27.548327,64.332747 C 19.287208,64.332747 12.590658,57.635024 12.592117,49.373914 C 12.590617,41.112806 19.287208,34.415085 27.548327,34.415085 C 35.809437,34.415085 42.505978,41.112806 42.504527,49.373914 L 42.504527,49.373914 z"
       id="path2454"
       style="fill:#a6a3a5;fill-opacity:1;fill-rule:evenodd;stroke:none" />
    <g
       transform="matrix(1.3640315,0,0,1.3640315,-151.23644,1.217585)"
       id="g2456">
      <path
         d="M 139.687,32.752702 C 139.688,38.809094 134.77869,43.719332 128.7223,43.719332 C 122.6659,43.719332 117.75652,38.809094 117.75759,32.752702 C 117.75659,26.696311 122.6659,21.786072 128.7223,21.786072 C 134.77869,21.786072 139.68807,26.696311 139.687,32.752702 L 139.687,32.752702 z"
         id="path2458"
         style="fill:#0000ff;fill-opacity:1;fill-rule:evenodd;stroke:#000000;stroke-width:0.33620161px;stroke-linecap:butt;stroke-linejoin:miter;stroke-opacity:1" />
      <path
         d="M 136.58921,40.465176 C 132.30745,44.748442 125.36393,44.74905 121.08141,40.466576 C 116.7989,36.184061 116.7995,29.240544 121.08241,24.958778 C 125.36418,20.675512 132.30769,20.674904 136.59021,24.957378 C 140.87272,29.239895 140.87212,36.183412 136.58921,40.465177 L 136.58921,40.465177 L 136.58921,40.465176 z"
         id="path2460"
         style="opacity:0.71739131;fill:url(#linearGradient2464);fill-opacity:1;fill-rule:evenodd;stroke:none" />
      <path
         d="M 130.91772,28.55551 C 130.91831,31.954817 128.16279,34.710815 124.76349,34.710815 C 121.36418,34.710815 118.60867,31.954817 118.60926,28.55551 C 118.60867,25.156203 121.36418,22.400205 124.76349,22.400205 C 128.16279,22.400205 130.91831,25.156203 130.91772,28.55551 L 130.91772,28.55551 z"
         id="path2462"
         style="fill:url(#radialGradient2466);fill-opacity:1;fill-rule:evenodd;stroke:none" />
    </g>
  </g>
  <g
     transform="matrix(1.1714659,0,0,1.1714659,2.9424626,-3.7694674)"
     id="g2438">
    <rect
       width="44.205811"
       height="45.844524"
       x="1.5955156"
       y="5.5493083"
       id="rect3229"
       style="fill:none;stroke:#9fa49d;stroke-width:1.88381231;stroke-linecap:round;stroke-linejoin:round;stroke-miterlimit:4;stroke-dasharray:3.76762435, 1.88381218;stroke-dashoffset:0;stroke-opacity:1" />
    <g
       transform="translate(-3.0675952,-18.684443)"
       id="g3449">
      <path
         d="M 42.504527,49.373914 C 42.506027,57.635024 35.809437,64.332747 27.548327,64.332747 C 19.287208,64.332747 12.590658,57.635024 12.592117,49.373914 C 12.590617,41.112806 19.287208,34.415085 27.548327,34.415085 C 35.809437,34.415085 42.505978,41.112806 42.504527,49.373914 L 42.504527,49.373914 z"
         id="use2673"
         style="fill:#9d9fa1;fill-opacity:1;fill-rule:evenodd;stroke:none" />
      <g
         transform="matrix(1.3640315,0,0,1.3640315,-151.23644,1.217585)"
         id="use2652">
        <path
           d="M 139.687,32.752702 C 139.688,38.809094 134.77869,43.719332 128.7223,43.719332 C 122.6659,43.719332 117.75652,38.809094 117.75759,32.752702 C 117.75659,26.696311 122.6659,21.786072 128.7223,21.786072 C 134.77869,21.786072 139.68807,26.696311 139.687,32.752702 L 139.687,32.752702 z"
           id="path3427"
           style="fill:#0000ff;fill-opacity:1;fill-rule:evenodd;stroke:#000000;stroke-width:0.33620161px;stroke-linecap:butt;stroke-linejoin:miter;stroke-opacity:1" />
        <path
           d="M 136.58921,40.465176 C 132.30745,44.748442 125.36393,44.74905 121.08141,40.466576 C 116.7989,36.184061 116.7995,29.240544 121.08241,24.958778 C 125.36418,20.675512 132.30769,20.674904 136.59021,24.957378 C 140.87272,29.239895 140.87212,36.183412 136.58921,40.465177 L 136.58921,40.465177 L 136.58921,40.465176 z"
           id="path3429"
           style="opacity:0.71739131;fill:url(#linearGradient2448);fill-opacity:1;fill-rule:evenodd;stroke:none" />
        <path
           d="M 130.91772,28.55551 C 130.91831,31.954817 128.16279,34.710815 124.76349,34.710815 C 121.36418,34.710815 118.60867,31.954817 118.60926,28.55551 C 118.60867,25.156203 121.36418,22.400205 124.76349,22.400205 C 128.16279,22.400205 130.91831,25.156203 130.91772,28.55551 L 130.91772,28.55551 z"
           id="path3431"
           style="fill:url(#radialGradient2450);fill-opacity:1;fill-rule:evenodd;stroke:none" />
      </g>
    </g>
    <rect
       width="44.205811"
       height="45.844524"
       x="-1.0423255"
       y="4.2897615"
       id="rect4688"
       style="fill:none;stroke:#000000;stroke-width:1.88381231;stroke-linecap:round;stroke-linejoin:round;stroke-miterlimit:4;stroke-dasharray:3.76762435, 1.88381218;stroke-dashoffset:0;stroke-opacity:1" />
  </g>
  <rect
     width="86.899376"
     height="25.481771"
     x="4.8329468"
     y="73.194328"
     id="rect2468"
     style="fill:#ffffff;fill-opacity:1;stroke:#000000;stroke-width:2.34293175;stroke-miterlimit:4;stroke-dasharray:none;stroke-opacity:1" />
  <path
     d="M 22.44068,92.281147 L 20.58127,92.281147 L 20.58127,85.567165 L 12.721487,85.567165 L 12.721487,92.281147 L 10.872126,92.281147 L 10.872126,78.099367 L 12.721487,78.099367 L 12.721487,84.00928 L 20.58127,84.00928 L 20.58127,78.099367 L 22.44068,78.099367 L 22.44068,92.281147 M 26.923369,92.552521 C 26.568236,92.512311 26.276761,92.368255 26.048944,92.120333 C 25.821122,91.872412 25.707212,91.590989 25.707214,91.27606 C 25.707212,90.934332 25.817766,90.646207 26.038893,90.411686 C 26.26671,90.177166 26.544784,90.059907 26.873115,90.059905 C 27.248345,90.059907 27.573322,90.21402 27.84805,90.522245 C 28.12277,90.823772 28.260131,91.188953 28.260135,91.617789 C 28.260131,92.931104 27.533119,93.956291 26.079096,94.693357 L 25.687112,93.969694 C 26.511282,93.567658 26.923367,93.095267 26.923369,92.552521 M 42.944461,92.281147 L 41.135304,92.281147 L 41.135304,80.481423 C 40.291025,81.319008 39.084923,81.737794 37.516989,81.737783 L 37.516989,80.049236 C 39.426652,80.049249 40.796919,79.359089 41.627797,77.978756 L 42.944461,77.978756 L 42.944461,92.281147 M 53.166198,87.858764 L 47.638218,87.858764 L 47.638218,86.150115 L 53.166198,86.150115 L 53.166198,87.858764 M 62.493407,85.939048 C 62.16507,86.454998 61.69268,86.867083 61.076234,87.175305 C 60.459774,87.476836 59.813168,87.627599 59.136416,87.627594 C 57.896804,87.627599 56.851514,87.185361 56.000544,86.300878 C 55.156269,85.409708 54.734133,84.26726 54.734134,82.873531 C 54.734133,81.399415 55.139517,80.18996 55.950289,79.245166 C 56.767758,78.300399 57.900154,77.828007 59.347484,77.827993 C 60.955617,77.828007 62.188522,78.444461 63.046205,79.677354 C 63.91057,80.903572 64.342757,82.669174 64.342768,84.974164 C 64.342757,87.433282 63.856966,89.312793 62.885392,90.612702 C 61.913799,91.905915 60.583734,92.552521 58.895195,92.552521 C 58.325641,92.552521 57.702488,92.458711 57.025732,92.271096 C 56.348971,92.08348 55.742569,91.825508 55.206525,91.497179 L 55.789476,90.059905 C 56.848165,90.689761 57.883403,91.004688 58.895195,91.004686 C 60.034287,91.004688 60.912063,90.579202 61.528524,89.728226 C 62.151669,88.877255 62.473297,87.614197 62.493407,85.939048 M 59.447993,86.089811 C 59.689207,86.089816 59.933779,86.052971 60.181707,85.979248 C 60.429622,85.898848 60.667492,85.791637 60.895318,85.657619 C 61.123131,85.516913 61.334199,85.3561 61.528524,85.175177 C 61.729533,84.987568 61.93055,84.753049 62.131576,84.471617 C 62.332585,84.183499 62.433093,83.985832 62.433101,83.878615 C 62.433093,82.786429 62.16172,81.764592 61.618981,80.813099 C 61.082927,79.854928 60.339164,79.375837 59.387687,79.375824 C 58.516607,79.375837 57.829798,79.684064 57.327259,80.300505 C 56.831413,80.91697 56.583492,81.73444 56.583494,82.752917 C 56.583492,83.758012 56.841464,84.565432 57.357412,85.175177 C 57.880053,85.784937 58.576912,86.089813 59.447993,86.089807"
     id="text3240"
     style="font-size:17.57130623px;font-style:normal;font-variant:normal;font-weight:normal;font-stretch:normal;fill:#000000;fill-opacity:1;stroke:none;font-family:Sans;-inkscape-font-specification:Sans" />
</svg>
